!!!!SEGMENT: Any1007d-Missa_Salve_regina-Sanctus--Vienna_4810.krn
!!!id: Any1007d
!!!SMS: Vienna 4810
!!!AGN: Mass; Sanctus
!!!voices: 4
!!!OPR: Missa Salve regina (Vienna 4810)
!!!COM: Anonymous
!!!OTL: Sanctus
**kern	**kern	**kern	**kern
*part4	*part3	*part2	*part1
*staff4	*staff3	*staff2	*staff1
*I"Bassus	*I"Tenor	*I"Altus	*I"Superius
*I'B	*I'T	*I'A	*I'S
*clefF4	*clefGv2	*clefGv2	*clefG2
*k[b-]	*k[b-]	*k[b-]	*k[b-]
*F:	*F:	*F:	*F:
*M2/1	*M2/1	*M2/1	*M2/1
*met(C)	*met(C)	*met(C)	*met(C)
=1	=1	=1	=1
!!section: Sanctus
!!!OMD: Sanctus
0r	0d	0r	0r
=2	=2	=2	=2
0r	1c	0r	0r
.	1d	.	.
=3	=3	=3	=3
0G	2G	0r	0r
.	1d	.	.
.	4c	.	.
.	4B-y	.	.
=4	=4	=4	=4
1F	2c	0r	0r
.	2d	.	.
1G	4G	.	.
.	4A	.	.
.	4B-y	.	.
.	4G	.	.
=5	=5	=5	=5
1C	2A	0r	0r
.	2.G	.	.
[1G	.	.	.
.	4A	.	.
.	4B-y	.	.
.	4c	.	.
=6	=6	=6	=6
2G]	4d	0r	0r
.	4e	.	.
4F	2f	.	.
4E	.	.	.
2F	2d	.	.
2G	[2e	.	.
=7	=7	=7	=7
4D	4e]	0r	0r
4E	4d	.	.
4F	1d	.	.
4D	.	.	.
1E	.	.	.
.	2c#i	.	.
=8	=8	=8	=8
1D	0d	0r	0r
[1G	.	.	.
=9	=9	=9	=9
2G]	0d	0r	0r
4F	.	.	.
4E	.	.	.
2F	.	.	.
2G	.	.	.
=10	=10	=10	=10
2C	1e	0r	0r
2c	.	.	.
2B-y	2d	.	.
2c	[2e	.	.
=11	=11	=11	=11
4G	4e]	0r	0r
4A	4d	.	.
4B-y	1g	.	.
4G	.	.	.
1A	.	.	.
.	2f#i	.	.
=12	=12	=12	=12
2G	2g	0r	0dd
2D	2a	.	.
2.F	2d	.	.
.	2f	.	.
4G	.	.	.
=13	=13	=13	=13
1A	1e	0r	1cc
1D	1d	.	1dd
=14	=14	=14	=14
0r	0B-y	0g	2g
.	.	.	1dd
.	.	.	4cc
.	.	.	4b-y
=15	=15	=15	=15
0r	0r	1f	2cc
.	.	.	2dd
.	.	1g	4g
.	.	.	4a
.	.	.	4b-y
.	.	.	4g
=16	=16	=16	=16
0r	0r	1c	2a
.	.	.	2.g
.	.	[1g	.
.	.	.	4a
.	.	.	4b-y
.	.	.	4cc
=17	=17	=17	=17
0r	0r	2g]	4dd
.	.	.	4ee
.	.	4f	2.ff
.	.	4e	.
.	.	2f	.
.	.	.	4ee
.	.	2g	[2ee
=18	=18	=18	=18
0r	0r	4d	4ee]
.	.	4e	4dd
.	.	4f	1dd
.	.	4d	.
.	.	1e	.
.	.	.	2cc#i
=19	=19	=19	=19
0r	0r	1d	1dd
.	.	2r	1a
.	.	[2d	.
=20	=20	=20	=20
0r	0r	2d]	2.a
.	.	4c	.
.	.	4B-y	4g
.	.	2c	2a
.	.	2d	[2b-y
=21	=21	=21	=21
0r	0r	4G	4b-]
.	.	4A	4a
.	.	4B-y	1g
.	.	4G	.
.	.	1A	.
.	.	.	2f#i
=22	=22	=22	=22
0r	1r	2G	2g
.	.	2g	2b-y
.	2r	2d	2a
.	2d	2f	[2dd
=23	=23	=23	=23
1r	2.A	1e	2dd]
.	.	.	2cc#i
.	4c	.	.
1G	1B-y	2d	1dd
.	.	[2g	.
=24	=24	=24	=24
2D	2A	2g]	2r
2F	1d	2f	2a
1E	.	1g	2e
.	2c#i	.	2g
=25	=25	=25	=25
1D	2d	2r	1f
.	1A	2d	.
2r	.	2c	2e
2G	2B-y	2d	4d
.	.	.	4e
=26	=26	=26	=26
2D	2.A	2r	4f
.	.	.	4g
2F	.	1d	2.a
.	4F	.	.
1E	1G	.	.
.	.	.	4g
.	.	2c#i	[2g
=27	=27	=27	=27
1D	1A	[0d	2g]
.	.	.	2f#i
2r	1G	.	2g
[2G	.	.	[2b-y
=28	=28	=28	=28
2G]	2.B-y	0d]	4b-]
.	.	.	4cc
4F	.	.	4dd
4E	4c	.	4ee
2D	4d	.	2ff
.	4e	.	.
[2BB-y	[2f	.	[2dd
=29	=29	=29	=29
4BB-]	2f]	2r	2dd]
4C	.	.	.
4D	4e	1f	4cc
4E	4d	.	4b-y
2F	2c	.	2a
2G	2B-y	2d	2b-y
=30	=30	=30	=30
1C	2.c	1e-X	2a
.	.	.	2.g
.	4B-y	.	.
1D	1A	1d	.
.	.	.	4f#i
.	.	.	4f#i
.	.	.	4e
=31	=31	=31	=31
0Gl	0Gl	0dl	0gl
=32||	=32||	=32||	=32||
*M2/1	*M2/1	*M2/1	*M2/1
*met(C)	*met(C)	*met(C)	*met(C)
!!section: Pleni sunt
!!!OMD: Pleni sunt
0G	0r	0r	0r
=33	=33	=33	=33
1B-y	0r	0r	0r
1F	.	.	.
=34	=34	=34	=34
0G	0r	0d	0r
=35	=35	=35	=35
1D	0r	1f	0r
1A	.	1c	.
=36	=36	=36	=36
2G	0r	0d	0r
2F	.	.	.
2.D	.	.	.
4E	.	.	.
=37	=37	=37	=37
0F	0r	1A	0r
.	.	[1d	.
=38	=38	=38	=38
1G	0r	2d]	0r
.	.	2e	.
2D	.	2f	.
[2G	.	[2e	.
=39	=39	=39	=39
4G]	0r	4e]	0r
4F	.	4d	.
4E	.	1d	.
4D	.	.	.
1E	.	.	.
.	.	2c#i	.
=40	=40	=40	=40
1D	0r	[0d	0r
1G	.	.	.
=41	=41	=41	=41
2F	0r	1d]	0r
1G	.	.	.
.	.	1g	.
4F	.	.	.
4E	.	.	.
=42	=42	=42	=42
2D	0r	2f	0r
2.C	.	1g	.
4D	.	.	.
2E	.	4f	.
.	.	4e	.
=43	=43	=43	=43
2F	0r	2.d	0r
2G	.	.	.
.	.	4e	.
2A	.	2f	.
2B-y	.	2d	.
=44	=44	=44	=44
2.c	0r	2.e	0r
4B-y	.	4d	.
1A	.	2e	.
.	.	2f	.
=45	=45	=45	=45
1G	0r	0g	0r
1r	.	.	.
=46	=46	=46	=46
0G	0r	1r	0r
.	.	[1d	.
=47	=47	=47	=47
1G	0r	1d]	0r
[1B-y	.	1d	.
=48	=48	=48	=48
2B-]	0r	1.f	0r
4A	.	.	.
4G	.	.	.
2F	.	.	.
2G	.	4e	.
.	.	4d	.
=49	=49	=49	=49
2A	0r	2c	0r
2B-y	.	2d	.
2A	.	2e	.
4D	.	[2f	.
4E	.	.	.
=50	=50	=50	=50
4F	0r	4f]	0r
4G	.	4e	.
2A	.	2e	.
2F	.	2A	.
[2G	.	[2e	.
=51	=51	=51	=51
4G]	0r	4e]	0r
4F	.	4d	.
4E	.	1d	.
4D	.	.	.
1E	.	.	.
.	.	2c#i	.
=52	=52	=52	=52
1D	0r	4d	0r
.	.	4c	.
.	.	4c	.
.	.	8B-yL	.
.	.	8AJ	.
2r	.	1B-y	.
[2D	.	.	.
=53	=53	=53	=53
4D]	0r	1A	0r
4E	.	.	.
4F	.	.	.
4G	.	.	.
2A	.	2r	.
2B-y	.	[2G	.
=54	=54	=54	=54
2.G	0r	4G]	0r
.	.	4A	.
.	.	4B-y	.
4D	.	4c	.
2F	.	2d	.
2G	.	[2e	.
=55	=55	=55	=55
1E	0r	4e]	0r
.	.	4f	.
.	.	2g	.
1D	.	4f	.
.	.	4e	.
.	.	4d	.
.	.	4c	.
=56	=56	=56	=56
2r	0r	4B-y	0r
.	.	4c	.
2.G	.	4d	.
.	.	4e	.
.	.	4f	.
4F	.	4g	.
2F	.	2a	.
=57	=57	=57	=57
2B-y	0r	2.g	0r
2c	.	.	.
.	.	4e	.
2.d	.	4f	.
.	.	4g	.
.	.	[2a	.
4B-y	.	.	.
=58	=58	=58	=58
4c	0r	4a]	0r
4B-y	.	4g	.
4A	.	1g	.
4G	.	.	.
1A	.	.	.
.	.	2f#i	.
=59	=59	=59	=59
0Gl	0r	0gl	0r
=60||	=60||	=60||	=60||
*M2/1	*M2/1	*M2/1	*M2/1
*met(C)	*met(C)	*met(C)	*met(C)
!!section: Osanna
!!!OMD: Osanna
0r	0r	0g	1g
.	.	.	[1b-y
=61	=61	=61	=61
0r	0r	1g	2b-]
.	.	.	4a
.	.	.	4g
.	.	1f	2.a
.	.	.	4b-y
=62	=62	=62	=62
0r	0c	2e	4cc
.	.	.	4dd
.	.	2.g	2.ee
.	.	4f	4dd
.	.	4e	[2dd
.	.	4d	.
=63	=63	=63	=63
1r	1c	1e	2dd]
.	.	.	2cc
[1G	1B-y	[1d	1dd
=64	=64	=64	=64
1G]	2G	0d]	2r
.	1B-y	.	4g
.	.	.	4a
1G	.	.	4b-y
.	.	.	4cc
.	4A	.	4dd
.	4G	.	4b-y
=65	=65	=65	=65
1F	2.A	2r	2cc
.	.	2.c	2a
.	4B-y	.	.
2E	4c	.	1g
.	4d	4B-y	.
[2G	[2e	[2B-y	.
=66	=66	=66	=66
4G]	4e]	2B-]	1.gg
4F	4d	.	.
4E	1d	1A	.
4D	.	.	.
1E	.	.	.
.	2c#i	2G	4ff
.	.	.	4ee
=67	=67	=67	=67
1D	0d	1A	2.ff
.	.	.	4ee
1G	.	2.B-y	4dd
.	.	.	4cc
.	.	.	[2dd
.	.	4c	.
=68	=68	=68	=68
1G	0r	2d	2dd]
.	.	2e	4cc
.	.	.	4b-y
1F	.	2f	2.a
.	.	4c	.
.	.	4d	4b-y
=69	=69	=69	=69
2E	1r	4e	4cc
.	.	4f	4dd
2c	.	2g	2.ee
4c	1c	1e	.
4B-y	.	.	4dd
4A	.	.	[2dd
4G	.	.	.
=70	=70	=70	=70
1A	1c	1e	2dd]
.	.	.	2cc
1G	1B-y	2r	1dd
.	.	4d	.
.	.	4e	.
=71	=71	=71	=71
0r	2A	4f	1r
.	.	4g	.
.	2.c	1a	.
.	.	.	1cc
.	4B-y	.	.
.	4A	[2g	.
.	4G	.	.
=72	=72	=72	=72
1r	1A	2g]	1cc
.	.	2f#i	.
2r	1G	[1g	2b-y
2C	.	.	[2g
=73	=73	=73	=73
1C	2r	1g]	4g]
.	.	.	4f
.	2c	.	4e
.	.	.	4d
1C	1c	[1G	1e
=74	=74	=74	=74
1G	1B-y	1G]	2.d
.	.	.	4e
2.F	2A	1r	4f
.	.	.	4g
.	[2c	.	[2a
8EL	.	.	.
8DJ	.	.	.
=75	=75	=75	=75
1E	4c]	0r	2a]
.	4B-y	.	.
.	4A	.	1g
.	4G	.	.
1D	1A	.	.
.	.	.	2f#i
=76	=76	=76	=76
1r	0G	2r	1g
.	.	2d	.
1G	.	2B-y	2r
.	.	[2d	2g
=77	=77	=77	=77
1F	0d	2d]	1a
.	.	2c	.
1G	.	2B-y	1b-y
.	.	2A	.
=78	=78	=78	=78
2.C	0c	2G	2r
.	.	2A	2.cc
4BB-y	.	.	.
2C	.	1G	.
.	.	.	4b-y
2E-X	.	.	2g
=79	=79	=79	=79
2D	0d	1g	4a
.	.	.	4f
2.BB-y	.	.	1b-y
.	.	1f	.
4C	.	.	.
2D	.	.	2a
=80	=80	=80	=80
2r	0G	0g	2b-y
2C	.	.	2cc
2.C	.	.	2.g
4D	.	.	4f
=81	=81	=81	=81
2E	0r	0c	2g
2.F	.	.	2.a
4E	.	.	4g
2F	.	.	2a
=82	=82	=82	=82
2D	1d	2r	2f
2BB-y	.	2.f	2b-y
2r	1c	.	2a
.	.	4g	.
2F	.	2a	4.f
.	.	.	8g
=83	=83	=83	=83
2D	1d	2f	2a
2BB-y	.	2d	1b-y
2E-X	1G	2B-y	.
2C	.	2e-i	2cc
=84	=84	=84	=84
2D	1r	2d	2f
2E	.	1c	2g
2F	2r	.	2a
2BB-y	2d	2B-y	2b-y
=85	=85	=85	=85
2F	2c	2A	2cc
2BB-y	2d	4F	2b-y
.	.	2f	.
2C	2G	.	2g
.	.	4e	.
4D	2d	2f	2b-y
4BB-y	.	.	.
=86	=86	=86	=86
2F	2c	1F	2a
2BB-y	2B-y	.	2d
2C	1A	1r	2e
2D	.	.	2f
=87	=87	=87	=87
2E-X	2G	1r	2g
4D	2d	.	4f
4BB-y	.	.	2b-y
2F	2c	2r	.
.	.	.	4a
2BB-y	2d	2f	4b-y
.	.	.	4d
=88	=88	=88	=88
2C	2G	2e	2e
2D	2d	2d	2f
2E-X	2r	2B-y	2g
4D	2d	[2f	[2a
4C	.	.	.
=89	=89	=89	=89
2F	2c	4f]	4a]
.	.	4e	4g
2G	2B-y	2.d	1g
1D	1A	.	.
.	.	4c	.
.	.	2A	2f#i
=90	=90	=90	=90
0Gl	0Gl	0B-yl	0gl
=91||	=91||	=91||	=91||
*M2/1	*M2/1	*M2/1	*M2/1
*met(C)	*met(C)	*met(C|)	*met(C)
!!section: Osanna
!!!OMD: Osanna
0r	0r	0G	[0g
=92	=92	=92	=92
0r	0r	1B-y	0g_
.	.	[1c	.
=93	=93	=93	=93
0r	0r	2c]	0g]
.	.	2d	.
.	.	2.e	.
.	.	4f	.
=94	=94	=94	=94
0r	0r	2g	1b-y
.	.	2d	.
.	.	2e	1cc
.	.	[2f	.
=95	=95	=95	=95
0r	0r	4f]	1dd
.	.	4d	.
.	.	1g	.
.	.	.	2b-y
.	.	4G	[2dd
.	.	4A	.
=96	=96	=96	=96
0r	0r	4B-y	2dd]
.	.	4c	.
.	.	1d	4cc
.	.	.	4b-y
.	.	.	1a
.	.	4c	.
.	.	4B-y	.
=97	=97	=97	=97
0r	0r	2A	2r
.	.	2G	2b-y
.	.	2d	2a
.	.	4G	[2b-y
.	.	4A	.
=98	=98	=98	=98
0r	0r	4B-y	2b-]
.	.	4c	.
.	.	2.d	4a
.	.	.	4g
.	.	.	4f
.	.	4B-y	4e
.	.	[2c	[2a
=99	=99	=99	=99
0r	0r	4c]	4a]
.	.	4B-y	4g
.	.	4A	1g
.	.	4G	.
.	.	1A	.
.	.	.	2f#i
=100	=100	=100	=100
0r	0r	2G	0g
.	.	1c	.
.	.	2B-y	.
=101	=101	=101	=101
0r	0r	1e-i	2r
.	.	.	1g
.	.	1d	.
.	.	.	2f
=102	=102	=102	=102
0r	0r	2G	1b-y
.	.	2.d	.
.	.	.	2a
.	.	4e	.
.	.	2f	[2dd
=103	=103	=103	=103
0r	0r	2g	4dd]
.	.	.	4cc
.	.	1f	4dd
.	.	.	4b-y
.	.	.	2cc
.	.	2B-y	2dd
=104	=104	=104	=104
0r	0r	2f	2a
.	.	2g	2b-y
.	.	1e	4cc
.	.	.	4b-y
.	.	.	4b-y
.	.	.	8aL
.	.	.	8gJ
=105	=105	=105	=105
0r	0r	2.d	2f
.	.	.	2.ff
.	.	4e	.
.	.	2f	.
.	.	.	4ee
.	.	2g	[2dd
=106	=106	=106	=106
0r	0r	2.d	2dd]
.	.	.	4cc
.	.	4e	4b-y
.	.	4f	2.a
.	.	4g	.
.	.	[2f	.
.	.	.	4b-y
=107	=107	=107	=107
0r	0r	2f]	4cc
.	.	.	4dd
.	.	4e	2.ee
.	.	4d	.
.	.	2c	.
.	.	.	4dd
.	.	2d	[2dd
=108	=108	=108	=108
0r	0r	1e	2dd]
.	.	.	2cc#i
.	.	1d	1dd
=109	=109	=109	=109
0r	0r	1G	2r
.	.	.	2dd
.	.	2r	2cc
.	.	2d	2b-y
=110	=110	=110	=110
0r	0r	2c	2a
.	.	2B-y	2g
.	.	2A	2cc
.	.	2G	[2b-y
=111	=111	=111	=111
0r	0r	1c	4b-]
.	.	.	4g
.	.	.	2a
.	.	1B-y	2d
.	.	.	[2dd
=112	=112	=112	=112
0r	0r	2r	4dd]
.	.	.	4cc
.	.	2.G	2.b-y
.	.	4A	4a
.	.	2B-y	4g
.	.	.	4f
=113	=113	=113	=113
0r	0r	2c	2e
.	.	1B-y	4d
.	.	.	4e
.	.	.	4f
.	.	.	4g
.	.	4A	[2a
.	.	4G	.
=114	=114	=114	=114
0r	0r	2F	4a]
.	.	.	4g
.	.	2G	1g
.	.	1A	.
.	.	.	2f#i
=115	=115	=115	=115
0r	0r	0G	1g
.	.	.	2r
.	.	.	2dd
=116	=116	=116	=116
0r	0r	2r	2.ff
.	.	2d	.
.	.	.	4ee
.	.	2.f	2dd
.	.	.	2cc
.	.	4e	.
=117	=117	=117	=117
0r	0r	2d	2b-y
.	.	2c	2a
.	.	2B-y	2g
.	.	2A	[2cc
=118	=118	=118	=118
0r	0r	2.f	4cc]
.	.	.	4b-y
.	.	.	4a
.	.	4e	4g
.	.	2d	4f
.	.	.	4e
.	.	[2c	[2a
=119	=119	=119	=119
0r	0r	4c]	4a]
.	.	4B-y	4g
.	.	4A	1g
.	.	4G	.
.	.	1A	.
.	.	.	2f#i
=120	=120	=120	=120
0r	0r	0Gl	0gl
==	==	==	==
*-	*-	*-	*-
!!!system-decoration: s1,s2,s3,s4
!!!RDF**kern: i = editorial accidental
!!!RDF**kern: l = terminal long
!!!ENC: Maura Sugg
!!!END: 2026/6/16
!!!EED: Benjamin Ory
!!!EEV: 2026/06/21
!!!YEC: Copyright 2026 Benjamin Ory, All Rights Reserved
!!!ONB: Translated from MusicXML on 2026/06/21
!!!verovio: header encoded
!!!header-left: Edited by Zoe Saunders (2010)\n
!!!header-right:
!!!header-center:
!!muse2ps: T^@{OPR}^u^@{ONM}{. }@{OTL}^C^@{COM}^i2I150v90,90,90,120c120z18l2770t130
